X: 30233
T: Old Joe's
R: jig
M: 6/8
K: Dmajor
|:~f2 A AFA|BAF ADD|B/c/dB AFA|Bcd efg|
~f2 A AFA|BAF ADD|B/c/dB AFA|Bdc d2 e:|
|:~f3 efe|dBA d2e|~f2a {b}afe|faa {b}aba|
~f3 efe|dBA d2e|~f2 A AFA|1 Bdc d2 e|2 Bdc d3:|

